X: 100463
T: John Brosnan's Polka
S: Paul de Grae
B: An Pota Stir: Set Dance Music of West Kerry
R: polka
N: "John's source for this tune was Jer Collins, from
N: the Knocknagoshel area (note on J.B.'s album)" - PdG
M: 2/4
L: 1/8
K: G
GA/G/ ED | GB d2 | ed BG | A/B/A/G/  ED |
GA/G/ ED | GB d2 | ed BA | G2 G2 :|
d2 d^c/d/ | ed BG | c2 cB/c/ | ed Bc |
d2 d^c/d/ | ed BG | A/B/c BA | G2 G2 :|
